assets/icons/credit_card.svg

<svg height="24" viewBox="0 0 24 24" width="24" xmlns="http://www.w3.org/2000/svg"><g fill="#707070"><path d="m0 0h24v24h-24z" opacity="0"/><path d="m19 5h-14a3 3 0 0 0 -3 3v8a3 3 0 0 0 3 3h14a3 3 0 0 0 3-3v-8a3 3 0 0 0 -3-3zm-15 3a1 1 0 0 1 1-1h14a1 1 0 0 1 1 1v1h-16zm16 8a1 1 0 0 1 -1 1h-14a1 1 0 0 1 -1-1v-5h16z"/><path d="m7 15h4a1 1 0 0 0 0-2h-4a1 1 0 0 0 0 2z"/><path d="m15 15h2a1 1 0 0 0 0-2h-2a1 1 0 0 0 0 2z"/></g></svg>

<svg xmlns="http://www.w3.org/2000/svg" width="24" height="24" viewBox="0 0 24 24"><rect width="24" height="24" fill="#707070" opacity="0"/><path d="M19,5H5A3,3,0,0,0,2,8v8a3,3,0,0,0,3,3H19a3,3,0,0,0,3-3V8A3,3,0,0,0,19,5ZM4,8A1,1,0,0,1,5,7H19a1,1,0,0,1,1,1V9H4Zm16,8a1,1,0,0,1-1,1H5a1,1,0,0,1-1-1V11H20Z" fill="#707070"/><path d="M7,15h4a1,1,0,0,0,0-2H7a1,1,0,0,0,0,2Z" fill="#707070"/><path d="M15,15h2a1,1,0,0,0,0-2H15a1,1,0,0,0,0,2Z" fill="#707070"/></svg>
